X:1
T:WALK AROUND. -- "HEY, DADDY."
T:WALK AROUND. -- "HEY, DADDY."
T:Dan Emmett
C:Dan Emmett
L:1/8
M:2/4
K:Bmin
V:1 treble 
V:1
 v[Bb]2 [Bb]2 | [Bb]2 [Bb]2 | x4 |:!mf!"^2" b"^3"f"^2" b2- | b/"^3"c'/b/a/"^3" f2 | bf b/c'/b/a/ | %6
"^3" f"^1" a2 a | bf"^2" b2 |"^1" B/c/d/e/ f>e | d2 c2 |1 B2- B z :|2 [Bb]2- [Bb][A,A] |] %12
!mf! vdd c"^4"e | d2- dA | dd c"^4"e | d2- dA | d2- de | fd AF | E3 G/F/ | E2 z uE |]"^4" ee ^df | %21
 e3 B | ee ^df | e3 B | e2- ef | gecA | ^GABc | d2 z A |]"^dance" vd/c/d/e/ f/e/d/c/ | %29
 B/^A/B/c/ d/c/d/A/ | d/c/d/e/ f/e/d/c/ | B/d/c/"^4"e/ dA | d/c/d/e/ f/e/d/c/ | %33
 B/^A/B/c/ d/c/d/A/ | d/c/d/e/ f/e/d/c/ | B/d/c/"^4"e/ d z |]!ff!"^break" AA/A/ AA | Bc [Fd]2 |] %38

